!!!OTL: 239. Der Bauer (Singspiel mit Pantomimen)./ b. Zweite Melodie.
!!!ARE: Europa, Mitteleuropa, Deutschland, Dillkreis; Lahnkreis
!!!SCT: K2239A
!!!TXL: @@DE
!!!YEM: Copyright 1995, estate of Helmut Schaffrath.
**kern	**text
*clefG2	*
*M3/4	*
*k[f#]	*
*G:	*
{8g	Wollt
8b/	ihr
=1	=1
4dd	wiſ-
4dd	-ſen,
8ee	wie
8dd	der
=2	=2
8.ddL	Bau-
16ccJ	.
4b}	-er
{8g	Wollt
8b/	ihr
=3	=3
4dd	wiſ-
4dd	-ſen,
8ee	wie
8dd	der
=4	=4
8.ddL	Bau-
16ccJ	.
4b}	-er
{8g	ſei-
8g	-nen
=5	=5
4b/	Ha-
4a	-fer
4d	aus-
=6	=6
2g}	-ſät?
{4g	Seht,
=7	=7
!LO:TX:a:t=*	!
2dd	ſo
8ee	machts
8dd	der
=8	=8
8.ddL	Bau-
16ccJ	.
4b}	-er,
{12g	wenn
12g	.
12g	er
=9	=9
4b/	Ha-
4a	-fer
4d	aus-
=10	=10
2g}	-ſät!
{4g	Seht,
=11	=11
!LO:TX:a:t=*	!
2dd	ſo
8ee	machts
8dd	der
=12	=12
8.ddL	Bau-
16ccJ	.
4b}	-er,
{12g	wenn
12g	.
12g	er
=13	=13
4b/	Ha-
4a	-fer
4d	aus-
=14	=14
2g}	-ſät!
==	==
!!!AGN: Kinder - Lied, Reigen, Tanz, Nachahmungs - Spiel
!!!ONB: ESAC (Essen Associative Code) Database: KINDER
!!!AMT: simple triple
!!!AIN: vox
!!!EED: Helmut Schaffrath
!!!EEV: 1.0
!!Aus dem Dill- und Lahnkreis.
!!!GTL: Zweites Buch. Kinderspiel: 2. Reigen und Tanzspiele. / E. Reigenspiele mit Nachahmungen.
!!!URL-scan: https://archive.org/details/DeutschesKinderliedUndKinderspiel/page/496/mode/1up
!!!ENC: Anna Maria Matuszewska
!!!EEV: 2024/04/09
*-	*-
